X: 35224
T: Rosalie, The Prairie Flower
R: barndance
M: 4/4
K: Gmajor
|:B>AG>F G2 E2|D>ED<B, D4|B>AG>F G2 B2|A2 E2 A4|
B>AG>F G2 E2|D>ED<B, D4|E>FG>A B2 A2|G2 D2 G4:|
|:A2 G>A B2 d2|A2 G>A B4|G2 F>G A2 c2|G2 F>G A4|
B>AG>F G2 E2|D>ED<B, D4|E>FG>A B2 A2|G4- G4:|
|:b/c'/b/a/ g>f g2 (3e>fe|d>ed<B d4|b/c'/b/a/ g>f g2 (3b>c'b|(3a>ba e2 (3ab<a- a2|
b/c'/b/a/ g/a/g/f/ g2 (3e>fe|d>ed<B d4|.e>.f.g>.a (3b>c'b (3a>ba|1 g2 dB G4:|2 g4- g4||
(3A>BA G>A B2 c>B|(3A>BA G>A B4|G2 F>G A2 c2|G2 F>G A4|
B/c/B/A/ g>f g2 (3e>fe|d>ed<B d4|.e>.f.g>.a (3B>cB (3A>BA|G4- G4|
(3A>BA G>A (3B>cB d2|(3A>BA G>A B4|G2 F>G A2 c2|(3G>AG F>G A4|
B/c/B/A/ G>F G2 (3e>fe|d>ed<B d4|.e>.f.G>.A (3B>cB (3A>BA|G4- G4||

